!!!!SEGMENT: pl-wtm--r-259-m--001_moniuszko-stanislaw--msza-kyrie.krn
!!!cenid: 18xx:2527
!!!COM: Moniuszko, Stanisław
!!!COM-rismID: pe30008351
!!!CDT: 1819/05/05-1872/06/04
!!!CNT: Polish
!!!OPR: Msza
!!!OTL: Kyrie
!!!OMV: 001
!!!PDT:
!!!AGN: Sacred; Mass
!!!SMS-siglum: PL-Wtm
!!!SMS-shelfmark: R 259/M
!!!SMS-shelfwork: 001-001 M
!!!SMS-variant:
!!!SMS-altvar:
!!!NIFC-rismSourceID: 1001095367
!!!NIFC-rismChildID: 1001095367
!!!NIFC-islandoraID:
!!!URL-pdf-islandora:
!!!URL-scan:
!!!IIIF:
!!!ONB-nifc: UWAGA: części Mszy: 1. Kyrie, 2. Gloria, 3. Graduale, 4. Credo, 5. Offertorium, 6. Sanctus, 7. Benedictus, 8. Agnus
!!!AIN: 1 bass 1 organ 1 viola 2 violn
!!!key:
**kern	**dynam	**kern	**dynam	**kern	**dynam	**kern	**dynam	**kern	**kern	**dynam
*part5	*part5	*part4	*part4	*part3	*part3	*part2	*part2	*part1	*part1	*part1
*staff6	*	*staff5	*	*staff4	*	*staff3	*	*staff2	*staff1	*
*Ibass	*	*Iviola	*	*Ivioln	*	*Ivioln	*	*Iorgan	*Iorgan	*
*I"Vcelli CB.	*	*I"Vla.	*	*I"V 2	*	*I"V I.	*	*I"Organo	*I"Organo	*
*clefF4	*	*clefC3	*	*clefG2	*	*clefG2	*	*clefF4	*clefG2	*
*k[b-e-a-d-g-]	*	*k[b-e-a-d-g-]	*	*k[b-e-a-d-g-]	*	*k[b-e-a-d-g-]	*	*k[b-e-a-d-g-]	*k[b-e-a-d-g-]	*
*D-:	*	*D-:	*	*D-:	*	*D-:	*	*D-:	*D-:	*
*M4/4	*	*M4/4	*	*M4/4	*	*M4/4	*	*M4/4	*M4/4	*
*met(c)	*	*met(c)	*	*met(c)	*	*met(c)	*	*met(c)	*met(c)	*
=1	=1	=1	=1	=1	=1	=1	=1	=1	=1	=1
*^	*	*	*	*	*	*	*	*^	*	*
*2\right	*2\right	*	*2\right	*	*2\right	*	*2\right	*	*2\right	*2\right	*2\right	*
!	!	!	!	!	!	!	!	!	!	!	!LO:TX:a:t=P:problem=akolada dorysowana zieloną kredką	!
!	!	!	!	!	!	!	!	!	!	!	!LO:TX:i:a:t=I. Klawiatura – p.\n2. Klawiatura. mf.	!
!	!	!	!	!	!	!	!	!	!	!	!LO:TX:a:Bi:t=N. 6 b):color=blue	!
!	!	!	!	!	!	!	!	!	!	!	!LO:TX:a:t=P:problem=all\right&colon; global	!
!	!	!	!	!	!LO:TX:a:t=P:problem=w źródle zamiast klucza, znaków i metrum znajduje się ukośna kreska	!	!	!	!	!LO:TX:a:t=P:problem=pauzy ze znacznikiem "@" w źródle są dorysowane niebieską kredką	!LO:TX:a:Bi:t=Kyrie.:color=dodgerblue	!
1rA	1rBB	.	1r	.	1r	.	1r	.	1D-	1rGG@	1f 1d-	p
=2	=2	=2	=2	=2	=2	=2	=2	=2	=2	=2	=2	=2
1ryy	1ryy	.	1ryy	.	1ryy	.	1ryy	.	1c 1D-	1rGG@	1a- 1f	.
=3	=3	=3	=3	=3	=3	=3	=3	=3	=3	=3	=3	=3
*	*	*	*	*	*	*	*	*	*	*^	*	*
1ryy	1ryy	.	1ryy	.	1ryy	.	1ryy	.	2B-/	1rGG@	1D-	2.g- 2.e-/	.
.	.	.	.	.	.	.	.	.	2E-/	.	.	.	.
.	.	.	.	.	.	.	.	.	.	.	.	4b- 4g-/	.
*	*	*	*	*	*	*	*	*	*	*v	*v	*	*
=4	=4	=4	=4	=4	=4	=4	=4	=4	=4	=4	=4	=4
1ryy	1ryy	.	1ryy	.	1ryy	.	2r	.	1A- 1D-	1rGG@	1a- 1e-	.
.	.	.	.	.	.	.	4r	.	.	.	.	.
.	.	.	.	.	.	.	4a-/	.	.	.	.	.
=5	=5	=5	=5	=5	=5	=5	=5	=5	=5	=5	=5	=5
1ryy	1ryy	.	1ryy	.	1ryy	.	4.a-/	.	1A- 1D-	1rGG@	1a- 1f	.
.	.	.	.	.	.	.	8b-/	.	.	.	.	.
.	.	.	.	.	.	.	8cc\L	.	.	.	.	.
.	.	.	.	.	.	.	8dd-\	.	.	.	.	.
.	.	.	.	.	.	.	8ee-\	.	.	.	.	.
.	.	.	.	.	.	.	8dd-\J	.	.	.	.	.
=6	=6	=6	=6	=6	=6	=6	=6	=6	=6	=6	=6	=6
*	*	*	*	*	*	*	*	*	*	*^	*	*
1ryy	1ryy	.	1ryy	.	1ryy	.	4..ff\	.	2d-/	1rGG@	1D-	1f	.
.	.	.	.	.	.	.	16dd-\	.	.	.	.	.	.
.	.	.	.	.	.	.	4a-/	.	2A-/	.	.	.	.
.	.	.	.	.	.	.	8f/L	.	.	.	.	.	.
.	.	.	.	.	.	.	8d-/J	.	.	.	.	.	.
=7	=7	=7	=7	=7	=7	=7	=7	=7	=7	=7	=7	=7	=7
*	*	*	*	*	*	*	*	*	*	*	*	*^	*
1ryy	1ryy	.	1ryy	.	1ryy	.	[<1A-	.	2F/	1rGG@	1AA-	2d-/	2ryy	.
.	.	.	.	.	.	.	.	.	2A-/	.	.	2e-/	2c\	.
*	*	*	*	*	*	*	*	*	*	*	*	*v	*v	*
=8	=8	=8	=8	=8	=8	=8	=8	=8	=8	=8	=8	=8	=8
1rA	1rBB	.	1r	.	1r	.	8A-/]	.	4A-/	1rGG@	4.DD-/	4.f 4.d-/	mf
.	.	.	.	.	.	.	8r	.	.	.	.	.	.
.	.	.	.	.	.	.	4r	.	4ryy	.	.	.	.
.	.	.	.	.	.	.	.	.	.	.	8AA-/	8r	.
.	.	.	.	.	.	.	2r	.	2ryy	.	8D-/L	2rb	.
.	.	.	.	.	.	.	.	.	.	.	16F/L	.	.
.	.	.	.	.	.	.	.	.	.	.	16A-/JJ	.	.
.	.	.	.	.	.	.	.	.	.	.	8d->\L	.	.
.	.	.	.	.	.	.	.	.	.	.	8f>\J	.	.
*v	*v	*	*	*	*	*	*	*	*	*v	*v	*	*
!!LO:LB:g=original
=9	=9	=9	=9	=9	=9	=9	=9	=9	=9	=9	=9
!	!	!	!	!LO:N:vis=4	!	!	!	!LO:TX:i:b:t=ped:rj	!	!	!
[>1AA-	.	4.A-/	.	4.e- 4.c/	.	2a-/	.	1A-	[<1AA-	[>1a- 1e- 1c	.
.	.	8E-/	.	8e-/	.	.	.	.	.	.	.
.	.	8A-/L	.	8A-/L	.	4a-/	.	.	.	.	.
.	.	8e-/	.	8e-/	.	.	.	.	.	.	.
.	.	8c/	.	8c/	.	4a-/	.	.	.	.	.
.	.	8A-/J	.	8A-/J	.	.	.	.	.	.	.
=10	=10	=10	=10	=10	=10	=10	=10	=10	=10	=10	=10
*	*	*	*	*	*	*	*	*	*	*^	*
*	*	*tremolo	*	*tremolo	*	*	*	*	*	*	*	*
1AA-^>_>	.	8B-/L	.	8B-/L	.	2b- 2a-/	.	1A-	1AA-^<_<	1b- 1e-	2a-\]	.
.	.	8E-/	.	8e-/	.	.	.	.	.	.	.	.
.	.	8B-/	.	8B-/	.	.	.	.	.	.	.	.
.	.	8E-/J	.	8e-/J	.	.	.	.	.	.	.	.
*	*	*Xtremolo	*	*Xtremolo	*	*	*	*	*	*	*	*
.	.	8d-/L	.	8d-/L	.	2b- 2gn/	.	.	.	.	2gn\	.
.	.	8B-/	.	8B-/	.	.	.	.	.	.	.	.
.	.	8e-/	.	8e-/	.	.	.	.	.	.	.	.
.	.	8E-/J	.	8d-/J	.	.	.	.	.	.	.	.
*	*	*	*	*	*	*	*	*	*	*v	*v	*
=11	=11	=11	=11	=11	=11	=11	=11	=11	=11	=11	=11
*	*	*	*	*	*	*	*	*	*^	*	*
*	*	*	*	*	*	*2\right	*	*	*	*	*	*
1AA-^>_>	.	8c\L	.	8c/L	.	2cc 2a-\	.	2c 2A-/	2ryy	1AA-^<_<	2cc 2a-\	.
.	.	8e-\	.	8e-/	.	.	.	.	.	.	.	.
.	.	8A-\	.	8A-/	.	.	.	.	.	.	.	.
.	.	8c\J	.	8c/J	.	.	.	.	.	.	.	.
.	.	8e-\L	.	8f/L	.	4dd-\	.	4B-/	4B-\	.	4dd- 4b-\	.
.	.	8d-\	.	8d-/	.	.	.	.	.	.	.	.
.	.	8c\	.	8c/	.	4ee-\	.	8A-/L	8ryy	.	4ee- 4cc\	.
.	.	8B-\J	.	8B-/J	.	.	.	8Gn/J	8ryy	.	.	.
*	*	*	*	*	*	*	*	*	*v	*v	*	*
=12	=12	=12	=12	=12	=12	=12	=12	=12	=12	=12	=12
*	*	*	*	*	*	*	*	*	*	*^	*
1AA-^>]	.	8A-/L	.	8A-/L	.	1ee-	.	2A- 2F/	1AA-^<_<	1ee-	2cc\	.
.	.	8e-/	.	8e-/	.	.	.	.	.	.	.	.
.	.	8a-/	.	8a-/	.	.	.	.	.	.	.	.
.	.	8cc/J	.	8cc/J	.	.	.	.	.	.	.	.
.	.	8b-\L	.	8b-/L	.	.	.	2d- 2Gn/	.	.	2b-\	.
.	.	8e-\	.	8e-/	.	.	.	.	.	.	.	.
.	.	8d-\	.	8d-/	.	.	.	.	.	.	.	.
.	.	8e-\J	.	8e-/J	.	.	.	.	.	.	.	.
=13	=13	=13	=13	=13	=13	=13	=13	=13	=13	=13	=13	=13
2AA-^</	.	8c\L	.	8c/L	.	2ee-^>\	.	2c/	(<2A- 2AA-^<\]	(>2ee-/	4a-\	.
.	.	8e-\	.	8e-/	.	.	.	.	.	.	.	.
.	.	8cc\	.	8cc/	.	.	.	.	.	.	4e-\	.
.	.	8a-\J	.	8a-/J	.	.	.	.	.	.	.	.
4BB-/	.	8gn\L	.	8gn/L	.	4dd-\	.	4B-/	4B- 4BB-\	4dd-/	4gn\	.
.	.	8e-\	.	8e-/	.	.	.	.	.	.	.	.
4C/	.	8a-\	.	8a-/	.	4cc\	.	4A-/	4A- 4C\	4cc/	4a-\	.
.	.	8g\J	.	8g/J	.	.	.	.	.	.	.	.
=14	=14	=14	=14	=14	=14	=14	=14	=14	=14	=14	=14	=14
*^	*	*	*	*	*	*	*	*	*	*	*	*
4D-/	1D-	.	8f\L	.	8f/L	.	(>4cc\	.	2A-/	1D-	4cc/	1f	.
.	.	.	8e-\	.	8e-/	.	.	.	.	.	.	.	.
4A-/	.	.	8d-\	.	8d-/	.	4b-\	.	.	.	4b-/	.	.
.	.	.	8f\J	.	8f/J	.	.	.	.	.	.	.	.
4B-/	.	.	8r	.	8r	.	4f/	.	4B-/	.	4f/	.	.
.	.	.	(>8f\L	.	(<8f/L	.	.	.	.	.	.	.	.
!	!	!	!	!	!	!	!LO:SIC:v:s=4gn	!	!	!	!	!	!
4Bn/	.	.	8gn\)	.	8gn/)	.	4g-/	.	4Bn/	.	4gn/	.	.
.	.	.	(>8g\J	.	(<8g/J	.	.	.	.	.	.	.	.
=15	=15	=15	=15	=15	=15	=15	=15	=15	=15	=15	=15	=15	=15
4c/	1C	.	8a-\L)	.	8a-/L)	.	4a-/)	.	4c/	1C	2a-/	2f\	.
.	.	.	8c\	.	8c/	.	.	.	.	.	.	.	.
4A-/	.	.	8f\	.	8f/	.	4a-/	.	4A-/	.	.	.	.
.	.	.	8a-\J	.	8a-/J	.	.	.	.	.	.	.	.
4F/	.	.	8a-\L	.	8cc/L	.	4cc/	.	4F/	.	4cc 4a-/	4ryy	.
.	.	.	8f\	.	8f/	.	.	.	.	.	.	.	.
8Gn/L	.	.	8gn\	.	8gn/	.	8b-/L	.	8Gn/L	.	8b-L 8gn/	8ryy	.
8A-/J	.	.	8f\J	.	8f/J	.	8a-/J	.	8A-/J	.	8a-J 8f/	8ryy	.
*v	*v	*	*	*	*	*	*	*	*	*	*	*	*
=16	=16	=16	=16	=16	=16	=16	=16	=16	=16	=16	=16	=16
*2\right	*	*2\right	*	*tremolo	*	*tremolo	*	*	*	*	*	*
1C-X^>	.	2en\	.	(<8a-/L	.	(<8a-/L	.	1A-	1C-X)	1a-)	2en\	.
.	.	.	.	8A-/	.	8A-/	.	.	.	.	.	.
.	.	.	.	8a-/	.	8a-/	.	.	.	.	.	.
.	.	.	.	8A-/J)	.	8A-/J)	.	.	.	.	.	.
*	*	*	*	*Xtremolo	*	*Xtremolo	*	*	*	*	*	*
.	.	2e-X\	.	8r	.	8r	.	.	.	.	2e-X\	.
.	.	.	.	(<8A-/L	.	(<8A-/L	.	.	.	.	.	.
.	.	.	.	8a-/	.	8a-/	.	.	.	.	.	.
.	.	.	.	8A-/J)	.	8A-/J)	.	.	.	.	.	.
!!LO:PB:g=original
=17	=17	=17	=17	=17	=17	=17	=17	=17	=17	=17	=17	=17
!	!	!LO:TX:t=P:problem=takt 16 jako custos	!	!	!	!	!	!	!	!	!	!
2BB-/	.	8r	.	8r	.	8r	.	2B-/	2BB-\	(>1a-	2dn\	.
!	!	!LO:TX:t=P:problem=mixed beam	!	!	!	!	!	!	!	!	!	!
.	.	(<8A-/L	.	(<8A-/L	.	(<8A-/L	.	.	.	.	.	.
.	.	8a-\	.	8a-/	.	8a-/	.	.	.	.	.	.
.	.	8A-/J)	.	8A-/J)	.	8A-/J)	.	.	.	.	.	.
*	*	*rep	*	*rep	*	*rep	*	*	*	*	*	*
2F-X\	.	8r	.	8r	.	8r	.	2A-/	2F-X\	.	2d-X\	.
!	!	!LO:TX:t=P:problem=mixed beam	!	!	!	!	!	!	!	!	!	!
.	.	(<8A-/L	.	(<8A-/L	.	(<8A-/L	.	.	.	.	.	.
.	.	8a-\	.	8a-/	.	8a-/	.	.	.	.	.	.
.	.	8A-/J)	.	8A-/J)	.	8A-/J)	.	.	.	.	.	.
*	*	*Xrep	*	*Xrep	*	*Xrep	*	*	*	*	*	*
=18	=18	=18	=18	=18	=18	=18	=18	=18	=18	=18	=18	=18
2E-\	.	(>8d-\L	.	(<8d-/L	.	2b-\	.	2.Gn/	2E-\	2b-/	8d-\L	.
.	.	8e-\	.	8e-/	.	.	.	.	.	.	8e-\	.
.	.	8f\	.	8f/	.	.	.	.	.	.	8f\	.
.	.	8e-\J)	.	8e-/J)	.	.	.	.	.	.	8e-\J	.
*	*	*rep	*	*rep	*	*	*	*	*	*	*	*
2GGn/	.	(>8d-\L	.	(<8d-/L	.	2bn\	.	.	2GGn\	2bn/	8d-\L	.
.	.	8e-\	.	8e-/	.	.	.	.	.	.	8e-\	.
.	.	8f\	.	8f/	.	.	.	4E-/	.	.	8f\	.
.	.	8e-\J)	.	8e-/J)	.	.	.	.	.	.	8e-\J	.
*	*	*Xrep	*	*Xrep	*	*	*	*	*	*	*	*
=19	=19	=19	=19	=19	=19	=19	=19	=19	=19	=19	=19	=19
!	!	!LO:TX:t=P:problem=mixed beam	!	!	!	!	!	!	!	!	!	!
2AA-/	.	(>8f\L	.	(<8f/L	.	2cc\	.	4c/	2AA-\	2cc/	4f\	.
.	.	8c\	.	8c/	.	.	.	.	.	.	.	.
.	.	8e-\	.	8e-/	.	.	.	2A-/	.	.	4e-\	.
.	.	8A-/J)	.	8a-/J)	.	.	.	.	.	.	.	.
4BB-/	.	(>8d-\L	.	(<8d-/L	.	4dd-\	.	.	4BB-\	4dd-/	4d-\	.
.	.	8A-\	.	8a-/	.	.	.	.	.	.	.	.
!	!	!	!	!	!	!	!	!LO:TX:t=P:problem=dźwięk można potraktować jako A lub T	!	!	!	!
4C/	.	8c\	.	8c/	.	4ee-\	.	4c/	4C\	4ee-/	4ryy	.
.	.	8A-\J)	.	8a-/J)	.	.	.	.	.	.	.	.
=20	=20	=20	=20	=20	=20	=20	=20	=20	=20	=20	=20	=20
4D-\	.	(>8f\L	.	(<8f/L	.	4ee-\	.	2.B-/	4D-\	1ee-)	4f\	.
.	.	8e-\	.	8e-/	.	.	.	.	.	.	.	.
4E-\	.	8gn\	.	8gn/	.	2ee-\	.	.	4E-\	.	4gn\	.
.	.	8e-\J)	.	8e-/J)	.	.	.	.	.	.	.	.
4F\	.	(>8a-\L	.	(<8a-/L	.	.	.	.	4F\	.	4a-\	.
.	.	8e-\	.	8e-/	.	.	.	.	.	.	.	.
4Gn\	.	8b-\	.	8b-/	.	4ee-\	.	4d-/	4Gn\	.	4b-\	.
.	.	8e-\J)	.	8e-/J)	.	.	.	.	.	.	.	.
=21	=21	=21	=21	=21	=21	=21	=21	=21	=21	=21	=21	=21
2A-\	.	(>8a-\L	.	(<8a-/L	.	2ee-^>\	.	2c/	2A-\	2ee-/	4a-\	.
.	.	8e-\	.	8e-/	.	.	.	.	.	.	.	.
.	.	8gn\	.	8gn/	.	.	.	.	.	.	4gn\	.
.	.	8a-\J)	.	8a-/J)	.	.	.	.	.	.	.	.
2AA-/	.	8f\L	.	(<8f/L	.	4dd-\	.	2A-/	2AA-\	(>4dd-/	4f\	.
.	.	8a-\	.	8a-/	.	.	.	.	.	.	.	.
.	.	8e-\	.	8e-/	.	4cc\	.	.	.	4cc/	4e-\	.
.	.	8f\J	.	8f/J)	.	.	.	.	.	.	.	.
*	*	*	*	*	*	*	*	*	*	*v	*v	*
=22	=22	=22	=22	=22	=22	=22	=22	=22	=22	=22	=22
1BB-	.	(>8e-\L	.	(8e-/L	.	(>4cc\	.	1F/ 1BB-	1rB	(>4cc (<4e-/	.
.	.	8f\	.	8<f/	.	.	.	.	.	.	.
.	.	8d-\	.	8d-/	.	4b-\	.	.	.	4b- [<4d-/))	.
.	.	8f\J)	.	8f/J)	.	.	.	.	.	.	.
.	.	(>8d-\L	.	(<8d-/L	.	4f/)	.	.	.	[<4f 4d-/]	.
.	.	8B-\	.	8B-/	.	.	.	.	.	.	.
!	!	!	!	!	!	!	!	!	!	!LO:SIC:v:n=1:s=4gn	!
.	.	8d-\	.	8d-/	.	4gn/	.	.	.	4g- 4f/]	.
.	.	8f\J)	.	8f/J)	.	.	.	.	.	.	.
*	*	*	*	*	*	*	*	*v	*v	*	*
=23	=23	=23	=23	=23	=23	=23	=23	=23	=23	=23
*	*	*	*	*	*	*	*	*	*^	*
2C/	.	(>8f\L	.	(<8f/L	.	4.a-/	.	(<2C\	2a-/	[<2f\	.
.	.	8c\J	.	8c/J)	.	.	.	.	.	.	.
.	.	4f\)	.	4f/	.	.	.	.	.	.	.
.	.	.	.	.	.	8a-/	.	.	.	.	.
2C-X/	.	(>8e-\L	.	(<8e-/L	.	4.an/	.	2C-X\	2an/	2f_< [<2e-\	.
.	.	8f\J	.	8f/J)	.	.	.	.	.	.	.
.	.	[>4e-\)	.	[<4e-/	.	.	.	.	.	.	.
.	.	.	.	.	.	8a/	.	.	.	.	.
=24	=24	=24	=24	=24	=24	=24	=24	=24	=24	=24	=24
*	*	*	*	*	*	*	*	*	*	*^	*
2BB-/	.	8e-\L]	.	8e-/L]	.	4.b-\	.	2BB-\	2b-/	2f] 2e-\]	2ryy	.
.	.	(>8f\	.	(<8f/	.	.	.	.	.	.	.	.
.	.	8e-\	.	8e-/	.	.	.	.	.	.	.	.
.	.	8f\J)	.	8f/J)	.	8b-\	.	.	.	.	.	.
2AA-/	.	(>8a-\L	.	(<8a-/L	.	2cc\	.	4AA-\)	2cc/)	2e-\	4a-\	.
.	.	8e-\	.	8e-/	.	.	.	.	.	.	.	.
.	.	8g-X\	.	8g-X/	.	.	.	4r	.	.	4g-X\	.
.	.	8e-\J)	.	8e-/J)	.	.	.	.	.	.	.	.
*	*	*	*	*	*	*	*	*	*	*v	*v	*
!!LO:LB:g=original
=25	=25	=25	=25	=25	=25	=25	=25	=25	=25	=25	=25
*^	*	*	*	*	*	*	*	*^	*	*	*
!	!	!	!LO:TX:a:t=P:problem= "a" przed pięciolinią	!	!	!	!	!	!	!	!LO:TX:a:t=P:problem= "a" przed akoladą	!	!
!	!	!	!LO:TX:B:a:t=a:color=red:rj	!	!	!	!	!	!	!	!LO:TX:B:a:t=a:color=red	!	!
[>2D-/	(<1D-	.	(>8f\L	.	(<8f/L	.	1dd-	.	2r	1rGG	(>1dd-	4.f\	.
.	.	.	8a-\	.	8a-/	.	.	.	.	.	.	.	.
.	.	.	8f\	.	8f/	.	.	.	.	.	.	.	.
.	.	.	8e-\J)	.	8e-/J)	.	.	.	.	.	.	8e-\	.
8D-/L]	.	.	8d-/L	.	2d-/	.	.	.	4r	.	.	[<2d-\	.
(<8A-/	.	.	8A-/	.	.	.	.	.	.	.	.	.	.
8F/	.	.	8F/	.	.	.	.	.	4F/	.	.	.	.
8A-/J)	.	.	8A-/J	.	.	.	.	.	.	.	.	.	.
=26	=26	=26	=26	=26	=26	=26	=26	=26	=26	=26	=26	=26	=26
[>2D-/	4.F\)	.	(>8d-\L	.	(<8d-/L	.	1cc	.	2.A-/	4.F\	1cc	1d-]	.
.	.	.	8f\	.	8f/J	.	.	.	.	.	.	.	.
.	.	.	8a-\	.	8a-/L	.	.	.	.	.	.	.	.
.	8E-\	.	8g-\J)	.	8g-/J)	.	.	.	.	8E-\	.	.	.
!	!	!	!LO:TX:t=P:problem=mixed beam	!	!	!	!	!	!	!	!	!	!
8D-/L]	4D-\	.	(>8f\L	.	(<8f/L	.	.	.	.	4D-\	.	.	.
8A-/	.	.	8A-/	.	8a-/J	.	.	.	.	.	.	.	.
8F/	4F\	.	8F/	.	4d-/)	.	.	.	4F/	4FF\	.	.	.
8A-/J	.	.	8A-/J)	.	.	.	.	.	.	.	.	.	.
=27	=27	=27	=27	=27	=27	=27	=27	=27	=27	=27	=27	=27	=27
*	*	*	*	*	*	*	*	*	*	*^	*	*	*
8G-/L	4.G-\	.	(<8G-/L	.	2d-/	.	2b-\	.	2B-/	4.G-/	4.GG-\	2b-/	2d-\	.
8D-/	.	.	8D-/	.	.	.	.	.	.	.	.	.	.	.
8G-/	.	.	8G-/	.	.	.	.	.	.	.	.	.	.	.
8F/J	8F\	.	8F/J)	.	.	.	.	.	.	8F/	8FF\	.	.	.
4E-/	4E-\	.	(<8E-/L	.	(<8g-/L	.	4cc\	.	2A-/	4E-/	4EE-\	4cc/	4g-\	.
.	.	.	8A-/	.	8a-/	.	.	.	.	.	.	.	.	.
4D-/	4D-\	.	8F/	.	8f/	.	4dd-\	.	.	4D-/	4DD-\	4dd-/	4f\	.
.	.	.	8d-/J)	.	8d-/J)	.	.	.	.	.	.	.	.	.
*v	*v	*	*	*	*	*	*	*	*	*v	*v	*	*	*
=28	=28	=28	=28	=28	=28	=28	=28	=28	=28	=28	=28	=28
2C/	.	(>8a-\L	.	(<8a-/L	.	2ee-\	.	2C/	4CC\	2ee-/	2a- 2e-\	.
.	.	8e-\	.	8e-/	.	.	.	.	.	.	.	.
.	.	8c\	.	8c/	.	.	.	.	4C\	.	.	.
.	.	8A-\J)	.	8A-/J)	.	.	.	.	.	.	.	.
2BB-/	.	8B-/L	.	(<8B-/L	.	2een\	.	2d- 2B-/	2BB-\	2een/)	2g-X\	.
.	.	8c/	.	8c/	.	.	.	.	.	.	.	.
.	.	8d-/	.	8d-/	.	.	.	.	.	.	.	.
.	.	8B-/J	.	8B-/J)	.	.	.	.	.	.	.	.
=29	=29	=29	=29	=29	=29	=29	=29	=29	=29	=29	=29	=29
2AAn/	.	(>8B-\L	.	(<8c/L	.	4.ff^>\	.	2c 2An/	2AAn\	4.ff/	1f	.
.	.	8f\	.	8f/	.	.	.	.	.	.	.	.
.	.	8B-\	.	8cc/	.	.	.	.	.	.	.	.
.	.	8f\J)	.	8f/J)	.	8ee-X\	.	.	.	8ee-X/	.	.
2BB-/	.	(>8B-\L	.	(<8B-/L	.	(>8ee-\L	.	2B-/	2BB-\	(>8ee-/L	.	.
.	.	8f\	.	8f/	.	8dd-\)	.	.	.	8dd-/	.	.
.	.	8B-\	.	8d-/	.	(>8cc\	.	.	.	8cc/	.	.
.	.	8f\J)	.	8f/J)	.	8dd-\J)	.	.	.	8dd-/J)	.	.
=30	=30	=30	=30	=30	=30	=30	=30	=30	=30	=30	=30	=30
(<4FF/	.	(<8A-/L	.	(<8a-/L	.	2dd-\	.	4A- 4F/	4FF\	(>2dd-/	4a-\	.
.	.	8d-/	.	8d-/	.	.	.	.	.	.	.	.
2GG-/)	.	8B-/	.	8g-/	.	.	.	2B- 2G-/	2GG-\	.	4g-\	.
.	.	8d-/J)	.	8d-/J)	.	.	.	.	.	.	.	.
.	.	(<8e-/L	.	(<8e-/L	.	(>8cc\L	.	.	.	8cc/L	4e-\	.
.	.	8d-/	.	8d-/	.	8b-\	.	.	.	8b-/	.	.
!	!	!	!	!	!	!LO:TX:b:t=d	!	!	!	!	!	!
4GG-/	.	8B-/	.	8B-/	.	8d-\	.	4B- 4G-/	(>4GG-\	8d-/	8ryy	.
!	!	!	!	!	!	!LO:TX:b:t=e	!	!	!	!	!	!
.	.	8G-/J)	.	8e-/J)	.	8e-\J)	.	.	.	8e-/J)	8ryy	.
=31	=31	=31	=31	=31	=31	=31	=31	=31	=31	=31	=31	=31
1AA-	.	2A- 2F/	.	2d-/	.	(<4f/	.	2A- 2F/	1AA-)	(>4f/	2.d-\	.
.	.	.	.	.	.	8b-/L	.	.	.	8b-/L	.	.
.	.	.	.	.	.	8a-/J)	.	.	.	8a-/J	.	.
.	.	4E-/	.	2c/	.	2a-/	.	2G- 2E-/	.	2a-/	.	.
.	.	4G-/	.	.	.	.	.	.	.	.	4c\	.
*	*	*	*	*	*	*	*	*	*	*v	*v	*
=32	=32	=32	=32	=32	=32	=32	=32	=32	=32	=32	=32
*^	*	*	*	*	*	*	*	*	*	*	*
*	*	*	*	*	*	*	*	*	*	*2\left	*	*
!	!	!LO:HP:b	!	!LO:HP:b	!	!	!	!	!	!	!	!
8D-/L	1D-	<	8F/L	<	8d-/L	.	8d-/L	.	8F/L	2D-\	8d-/L	.
*	*	*	*	*	*	*	*	*	*	*2\right	*	*
!	!	!	!	!	!	!	!	!	!	!	!	!LO:DY:b
!	!	!	!	!	!	!LO:HP:b	!	!LO:HP:b	!	!	!	!
8AA-/	.	.	8A-/	.	8A-/	<	8A-/	<	8AA-/	.	8A-/	f
8D-/	.	.	8D-/	.	8d-/	.	8d-/	.	8D-/	.	8d-/	.
8F/J	.	.	8F/J	.	8f/J	.	8f/J	.	8F/J	.	8f/J	.
8A-/L	.	.	8A-/L	.	8a-/L	.	8a-/L	.	4A-/	4r	8a-/L	.
8d-/	.	.	8d-/	.	8f/	.	8f/	.	.	.	8d-/J)	.
!	!	!LO:DY:b	!	!LO:DY:b	!	!LO:DY:b	!	!LO:DY:b	!	!	!	!
8f/	.	[ f	8f/	[ f	8dd-/	[ f	8dd-/	[ f	8A-/L	4D-\	(>4dd- 4a- 4f/	.
8A-/J	.	.	8a-/J	.	8a-/J	.	8a-/J	.	8d-/J	.	.	.
!!LO:PB:g=original
=33	=33	=33	=33	=33	=33	=33	=33	=33	=33	=33	=33	=33
!	!	!	!	!	!LO:TX:i:a:t=col Imo	!	!	!	!	!	!	!
!	!	!	!	!	!	!	!	!	!	!	!LO:S:s=1:note:problem=note-level slur	!
!	!	!	!	!	!	!	!	!	!	!	!LO:S:s=2:note:problem=note-level slur	!
(>8AA-^</L	1D-^<	.	8g-^>\L	.	8ee-^>\Lyy	.	8ee-^>\L	.	8cL 8A-/	1D-^<	(>2ee- (>2a- [<2g-/)	.
8E-/	.	.	8e-\J	.	8cc\yy	.	8cc\	.	(<8E-/	.	.	.
8A-/	.	.	[>4c\	.	8a-\yy	.	8a-\	.	8A-/	.	.	.
8c/J)	.	.	.	.	8g-\Jyy	.	8g-\J	.	8c/J	.	.	.
(>4e-^>/	.	.	8c\L]	.	8b-\Lyy	.	8b-\L	.	8A-/)	.	8b-))L 8g-/]	.
.	.	.	8a-\	.	8a-\yy	.	8a-\	.	8r	.	8a-/	.
4d-/)	.	.	8f\	.	8dd-\yy	.	8dd-\	.	4d- 4A-/	.	(>8dd- 8f/	.
.	.	.	8a-\J	.	8a-\Jyy	.	8a-\J	.	.	.	8a-/J	.
=34	=34	=34	=34	=34	=34	=34	=34	=34	=34	=34	=34	=34
*rep	*	*	*rep	*	*rep	*	*rep	*	*	*	*	*
(>8AA-^</L	1D-^<	.	8g-^>\L	.	8ee-^>\L	.	8ee-^>\L	.	8cL 8A-/	1D-^<	(>2ee- 2a- [<2g-/	.
8E-/	.	.	8e-\J	.	8cc\	.	8cc\	.	(<8E-/	.	.	.
8A-/	.	.	[>4c\	.	8a-\	.	8a-\	.	8A-/	.	.	.
8c/J)	.	.	.	.	8g-\J	.	8g-\J	.	8c/J	.	.	.
(>4e-^>/	.	.	8c\L]	.	8b-\L	.	8b-\L	.	8A-/)	.	8b-L 8g-/]))	.
.	.	.	8a-\	.	8a-\	.	8a-\	.	8r	.	8a-/	.
4d-/)	.	.	8f\	.	8dd-\	.	8dd-\	.	4d- 4A-/	.	(>8dd- 8f/	.
.	.	.	8a-\J	.	8a-\J	.	8a-\J	.	.	.	8a-/J	.
*Xrep	*	*	*Xrep	*	*Xrep	*	*Xrep	*	*	*	*	*
=35	=35	=35	=35	=35	=35	=35	=35	=35	=35	=35	=35	=35
*	*	*	*	*	*	*	*	*	*	*	*^	*
*	*	*	*	*	*rep	*	*	*	*	*	*	*	*
2c/	1D-^	.	2g-\	.	8ee-\L	.	8ee-\L	.	2c 2A-/	[<1D-^<	8ee- 8g-/	4g-\	.
.	.	.	.	.	8cc\	.	8cc\	.	.	.	8cc/L	.	.
.	.	.	.	.	8a-\	.	8a-\	.	.	.	8a-/	8ryy	.
.	.	.	.	.	8g-\J	.	8g-\J	.	.	.	8g-/J	8ryy	.
*	*	*	*	*	*Xrep	*	*	*	*	*	*	*	*
4d-/	.	.	4f\	.	4f/	.	(>8f\L	.	4d- 4B-/	.	8f/L	8ryy	.
.	.	.	.	.	.	.	8dd-\)	.	.	.	8dd-/	8ryy	.
4B-/	.	.	(>8g-\L	.	(<8g-/L	.	(>8b-\	.	4B- 4G-/	.	8b-/	8ryy	.
.	.	.	8d-\J)	.	8d-/J)	.	8g-\J)	.	.	.	8g-/J	8ryy	.
*	*	*	*	*	*	*	*	*	*	*	*v	*v	*
=36	=36	=36	=36	=36	=36	=36	=36	=36	=36	=36	=36	=36
!	!	!	!LO:TX:B:a:t=Ɛ:color=red:rj	!	!	!LO:HP:b	!	!LO:HP:b	!LO:TX:B:a:t=Ɛ:color=red:rj	!	!	!
!	!	!LO:HP:b	!	!LO:HP:b	!	!	!	!	!	!	!	!
2.A-/	1D-	>	(>8f\L	>	2.d-/	>	2.a-/	>	4A-/	1D-]	8f/L	.
.	.	.	8d-\	.	.	.	.	.	.	.	8d-/J	.
.	.	.	8A-\	.	.	.	.	.	8ryy	.	8A-</L	.
.	.	.	8F\J)	.	.	.	.	.	8ryy	.	8F</J	.
!	!	!	!	!	!	!	!	!	!	!	!	!LO:DY:b
.	.	.	4A-/	.	.	.	.	.	8ryy	.	8D-</L	p
.	.	.	.	.	.	.	.	.	8ryy	.	8AA-</	.
!	!	!LO:DY:b	!	!LO:DY:b:rj	!	!LO:DY:b:rj	!	!LO:DY:b:rj	!	!	!	!
4D-/	.	] p	4F/	] p	4A-/	] p	4d-/	] p	8ryy	.	8F</	.
.	.	.	.	.	.	.	.	.	8ryy	.	8D-</J)	.
*	*	*	*	*	*	*	*	*	*v	*v	*	*
=37	=37	=37	=37	=37	=37	=37	=37	=37	=37	=37	=37
2.AA-/	[<1D-	.	2.G-/	.	[>1c-X^<	.	2.e-/	.	1DD-	(<8AA-</L	.
.	.	.	.	.	.	.	.	.	.	8D-</J)	.
.	.	.	.	.	.	.	.	.	.	(<8G-</L	.
.	.	.	.	.	.	.	.	.	.	8c-X</J	.
.	.	.	.	.	.	.	.	.	.	8G-</)	.
.	.	.	.	.	.	.	.	.	.	8D-<\L	.
4D-/	.	.	4F/	.	.	.	4d-/	.	.	8AA-<\	.
.	.	.	.	.	.	.	.	.	.	8D-<\J	.
=38	=38	=38	=38	=38	=38	=38	=38	=38	=38	=38	=38
*	*	*	*	*	*	*	*	*	*	*rep	*
!	!	!	!	!	!	!	!	!	!	!LO:TX:a:t=P:problem=znak powtórzenia na dolnej pięciolinii	!
2.AA-/	1D-^<_<	.	2.G-/	.	1c-^<]	.	2.e-/	.	1DD-	(<8AA-</L	.
.	.	.	.	.	.	.	.	.	.	8D-</J)	.
.	.	.	.	.	.	.	.	.	.	(<8G-</L	.
.	.	.	.	.	.	.	.	.	.	8c-X</J	.
.	.	.	.	.	.	.	.	.	.	8G-</)	.
.	.	.	.	.	.	.	.	.	.	8D-<\L	.
4D-/	.	.	4F/	.	.	.	4d-/	.	.	8AA-<\	.
.	.	.	.	.	.	.	.	.	.	8D-<\J	.
*	*	*	*	*	*	*	*	*	*	*Xrep	*
=39	=39	=39	=39	=39	=39	=39	=39	=39	=39	=39	=39
2AA-/	1D-^<]	.	2G-/	.	2c-X/	.	2e-/	.	1DD-	8r<	.
.	.	.	.	.	.	.	.	.	.	(<8AA-</L	.
.	.	.	.	.	.	.	.	.	.	8D-</	.
.	.	.	.	.	.	.	.	.	.	8AA-</J)	.
4..AA-/	.	.	4E-/	.	4..cn/	.	4..g-/	.	.	8r<	.
.	.	.	.	.	.	.	.	.	.	(<8AA-</L	.
.	.	.	4A-/	.	.	.	.	.	.	8E-</	.
.	.	.	.	.	.	.	.	.	.	8AA-</J)	.
16D-/	.	.	.	.	16d-/	.	16f/	.	.	.	.
!!LO:LB:g=original
=40	=40	=40	=40	=40	=40	=40	=40	=40	=40	=40	=40
*	*	*	*	*	*	*	*	*	*^	*	*
!	!	!	!	!	!	!	!	!	!	!	!	!LO:DY:b:rj
(>8D-/L	[<1D-^<	.	4A-/	.	[<2d-/	.	(<[>2f/	.	8r	[<1DD-^<	[>1f [>1d-	p
8AA-/	.	.	.	.	.	.	.	.	(>8AA-/L	.	.	.
8D-/)	.	.	8F/L	.	.	.	.	.	8D-/	.	.	.
8F|>/J	.	.	8A-/J	.	.	.	.	.	8F/J	.	.	.
!	!	!	!	!	!	!	!	!	!LO:TX:a:t=P:problem=trzy łuki przez kreskę taktową	!	!	!
[>2A-/	.	.	[>2A-/	.	8d-/L]	.	8f/L]	.	2A-/)	.	.	.
.	.	.	.	.	8a-/J	.	8a-/)	.	.	.	.	.
.	.	.	.	.	8dd-\L	.	(8dd-/	.	.	.	.	.
.	.	.	.	.	8ff\J	.	8ff/J)	.	.	.	.	.
=41	=41	=41	=41	=41	=41	=41	=41	=41	=41	=41	=41	=41
*	*	*	*	*	*	*	*	*	*rep	*rep	*	*
*	*	*	*	*	*	*	*	*	*	*	*rep	*
!	!	!	!	!	!LO:TX:i:a:t=Col Imo	!	!	!	!	!	!	!
(>8A-/L]	1D-^<_<	.	4A-/]	.	(>[>2aa-\yy	.	(>[>2aa-\	.	8r	1DD-^<_<	1f_> 1d-_>	.
8AA-/	.	.	.	.	.	.	.	.	(>8AA-/L	.	.	.
8D-/)	.	.	8F/L	.	.	.	.	.	8D-/	.	.	.
8F|>/J	.	.	8A-/J	.	.	.	.	.	8F/J	.	.	.
!	!	!	!	!	!	!	!	!	!LO:TX:a:t=P:problem=trzy łuki przez kreskę taktową	!	!	!
[>2A-/	.	.	2A-/	.	8aa-\L]yy	.	8aa-\L]	.	2A-/)	.	.	.
.	.	.	.	.	8ff\)yy	.	8ff\)	.	.	.	.	.
.	.	.	.	.	(>8dd-\yy	.	(>8dd-\	.	.	.	.	.
.	.	.	.	.	8a-\J)yy	.	8a-\J)	.	.	.	.	.
*	*	*	*	*	*	*	*	*	*Xrep	*Xrep	*Xrep	*
=42	=42	=42	=42	=42	=42	=42	=42	=42	=42	=42	=42	=42
*	*	*	*	*	*2\right	*	*	*	*rep	*rep	*rep	*
(>8A-/L]	1D-^<_<	.	4A-/	.	(>[<2ff\yy	.	(>[<2ff\	.	8r	1DD-^<]	1f] 1d-]	.
8AA-/	.	.	.	.	.	.	.	.	(>8AA-/L	.	.	.
8D-/)	.	.	8F/L	.	.	.	.	.	8D-/	.	.	.
8F|>/J	.	.	8A-/J	.	.	.	.	.	8F/J	.	.	.
[>2A-/	.	.	2A-/	.	8ff\L]yy	.	8ff\L]	.	2A-/)	.	.	.
.	.	.	.	.	8ee-\)yy	.	8ee-\)	.	.	.	.	.
.	.	.	.	.	(8dd-\yy	.	(>8dd-\	.	.	.	.	.
.	.	.	.	.	8a-\J)yy	.	8a-\J)	.	.	.	.	.
*	*	*	*	*	*	*	*	*	*Xrep	*Xrep	*Xrep	*
=43	=43	=43	=43	=43	=43	=43	=43	=43	=43	=43	=43	=43
*	*	*	*	*	*	*	*	*	*	*	*^	*
8A-/]	2D-^<\]	.	8A-/	.	(<8f/Lyy	.	(<8f/L	.	[>2A- [>2F/	[<2D- [<2DD-^<\	(>8f/L	2d-\	.
8r	.	.	8r	.	8g-/yy	.	8g-/	.	.	.	8g-/	.	.
(<8F/L	.	.	(<8F/L	.	8a-/yy	.	8a-/	.	.	.	8a-/	.	.
8A-/J)	.	.	8A-/J)	.	8f/J)yy	.	8f/J)	.	.	.	8f/J)	.	.
8F/	8D-\	.	8F/	.	8d-|</yy	.	8d-|</	.	8A-/]	8F] 8D-] 8DD-\]	8d-/	8d-\	.
8r	8ryy	.	8r	.	8ryy	.	8r	.	8r	8ryy	8r	8ryy	.
8D-/	8D-\	.	8F/	.	8A-|</yy	.	8A-|</	.	8F 8D-/	8DD-\	8A-/	8ryy	.
8r	8ryy	.	8r	.	8ryy	.	8r	.	8r	8ryy	8r	8ryy	.
*	*	*	*	*	*	*	*	*	*	*	*v	*v	*
=44	=44	=44	=44	=44	=44	=44	=44	=44	=44	=44	=44	=44
1D-;>	1D-	.	1F;>	.	1A-;>	.	1d-;>	.	1F 1D-	1AA- 1DD-	1d- 1A-;>	.
*v	*v	*	*	*	*	*	*	*	*v	*v	*	*
==	==	==	==	==	==	==	==	==	==	==
*-	*-	*-	*-	*-	*-	*-	*-	*-	*-	*-
!!!system-decoration: ({s1,s2}s3,s4,s5,s6)
!!!RDF**kern: @ = marked note, color=blue
!!!LO: ACC:color=blue
!!!RDF**kern: | = vertical stroke
!!!RDF**kern: > = above
!!!RDF**kern: < = below
!!!EED: Antoni Szymański
!!!EEV: 2021-07-20
!!!ENC: Krzysztof Stępień
!!!END: 2021-07-08
!!!YEC: Copyright 2022 Narodowy Instytut Fryderyka Chopina (https://polishscores.org)
!!!YEM: License CC-BY-4.0 (https://creativecommons.org/licenses/by/4.0)
